Newaita/actions/16/format-indent-less.svg

<svg height="16" viewBox="0 0 16 16" width="16" xmlns="http://www.w3.org/2000/svg"><g fill="#424242"><path d="m14.222656 3.433594h-12.570312c-.179688 0-.328125-.148438-.328125-.332032v-.660156c0-.183594.148437-.332031.328125-.332031h12.570312c.183594 0 .332032.148437.332032.332031v.660156c0 .183594-.148438.332032-.332032.332032zm0 0"/><path d="m9.59375 14.347656h-7.941406c-.179688 0-.328125-.148437-.328125-.332031v-.660156c0-.183594.148437-.332031.328125-.332031h7.941406c.179688 0 .328125.148437.328125.332031v.660156c0 .183594-.148437.332031-.328125.332031zm0 0"/><path d="m9.59375 10.710938h-7.941406c-.179688 0-.328125-.148438-.328125-.332032v-.660156c0-.183594.148437-.332031.328125-.332031h7.941406c.179688 0 .328125.148437.328125.332031v.660156c0 .183594-.148437.332032-.328125.332032zm0 0"/><path d="m9.59375 7.070312h-7.941406c-.179688 0-.328125-.148437-.328125-.332031v-.660156c0-.183594.148437-.332031.328125-.332031h7.941406c.179688 0 .328125.148437.328125.332031v.660156c0 .183594-.148437.332031-.328125.332031zm0 0"/><path d="m14.554688 12.363281v-4.628906l-3.308594 2.3125zm0 0"/></g></svg>

<?xml version="1.0" encoding="UTF-8"?>
<svg xmlns="http://www.w3.org/2000/svg" xmlns:xlink="http://www.w3.org/1999/xlink" width="16px" height="16px" viewBox="0 0 16 16" version="1.1">
<g id="surface1">
<path style=" stroke:none;fill-rule:nonzero;fill:rgb(25.882354%,25.882354%,25.882354%);fill-opacity:1;" d="M 14.222656 3.433594 L 1.652344 3.433594 C 1.472656 3.433594 1.324219 3.285156 1.324219 3.101562 L 1.324219 2.441406 C 1.324219 2.257812 1.472656 2.109375 1.652344 2.109375 L 14.222656 2.109375 C 14.40625 2.109375 14.554688 2.257812 14.554688 2.441406 L 14.554688 3.101562 C 14.554688 3.285156 14.40625 3.433594 14.222656 3.433594 Z M 14.222656 3.433594 "/>
<path style=" stroke:none;fill-rule:nonzero;fill:rgb(25.882354%,25.882354%,25.882354%);fill-opacity:1;" d="M 9.59375 14.347656 L 1.652344 14.347656 C 1.472656 14.347656 1.324219 14.199219 1.324219 14.015625 L 1.324219 13.355469 C 1.324219 13.171875 1.472656 13.023438 1.652344 13.023438 L 9.59375 13.023438 C 9.773438 13.023438 9.921875 13.171875 9.921875 13.355469 L 9.921875 14.015625 C 9.921875 14.199219 9.773438 14.347656 9.59375 14.347656 Z M 9.59375 14.347656 "/>
<path style=" stroke:none;fill-rule:nonzero;fill:rgb(25.882354%,25.882354%,25.882354%);fill-opacity:1;" d="M 9.59375 10.710938 L 1.652344 10.710938 C 1.472656 10.710938 1.324219 10.5625 1.324219 10.378906 L 1.324219 9.71875 C 1.324219 9.535156 1.472656 9.386719 1.652344 9.386719 L 9.59375 9.386719 C 9.773438 9.386719 9.921875 9.535156 9.921875 9.71875 L 9.921875 10.378906 C 9.921875 10.5625 9.773438 10.710938 9.59375 10.710938 Z M 9.59375 10.710938 "/>
<path style=" stroke:none;fill-rule:nonzero;fill:rgb(25.882354%,25.882354%,25.882354%);fill-opacity:1;" d="M 9.59375 7.070312 L 1.652344 7.070312 C 1.472656 7.070312 1.324219 6.921875 1.324219 6.738281 L 1.324219 6.078125 C 1.324219 5.894531 1.472656 5.746094 1.652344 5.746094 L 9.59375 5.746094 C 9.773438 5.746094 9.921875 5.894531 9.921875 6.078125 L 9.921875 6.738281 C 9.921875 6.921875 9.773438 7.070312 9.59375 7.070312 Z M 9.59375 7.070312 "/>
<path style=" stroke:none;fill-rule:nonzero;fill:rgb(25.882354%,25.882354%,25.882354%);fill-opacity:1;" d="M 14.554688 12.363281 L 14.554688 7.734375 L 11.246094 10.046875 Z M 14.554688 12.363281 "/>
</g>
</svg>
